src/img/instagram.svg

<svg width="16" height="16" viewBox="0 0 16 16" fill="none" xmlns="http://www.w3.org/2000/svg">
<g clip-path="url(#clip0_10_159)">
<path d="M8.00279 3.89209C5.73413 3.89209 3.89746 5.73076 3.89746 7.99742C3.89746 10.2661 5.73613 12.1028 8.00279 12.1028C10.2715 12.1028 12.1081 10.2641 12.1081 7.99742C12.1081 5.72876 10.2695 3.89209 8.00279 3.89209ZM8.00279 10.6621C6.53013 10.6621 5.33813 9.46942 5.33813 7.99742C5.33813 6.52542 6.53079 5.33276 8.00279 5.33276C9.47479 5.33276 10.6675 6.52542 10.6675 7.99742C10.6681 9.46942 9.47546 10.6621 8.00279 10.6621Z" fill="#222222" fill-opacity="0.62"/>
<path d="M11.2986 0.0505019C9.82657 -0.0181648 6.18057 -0.0148314 4.70724 0.0505019C3.41257 0.111169 2.27057 0.423835 1.34991 1.3445C-0.188759 2.88317 0.00790737 4.9565 0.00790737 7.99717C0.00790737 11.1092 -0.165426 13.1345 1.34991 14.6498C2.89457 16.1938 4.99791 15.9918 8.00257 15.9918C11.0852 15.9918 12.1492 15.9938 13.2392 15.5718C14.7212 14.9965 15.8399 13.6718 15.9492 11.2925C16.0186 9.81983 16.0146 6.1745 15.9492 4.70117C15.8172 1.8925 14.3099 0.189169 11.2986 0.0505019ZM13.6286 13.6318C12.6199 14.6405 11.2206 14.5505 7.98324 14.5505C4.64991 14.5505 3.31324 14.5998 2.33791 13.6218C1.21457 12.5038 1.41791 10.7085 1.41791 7.9865C1.41791 4.30317 1.03991 1.6505 4.73657 1.46117C5.58591 1.43117 5.83591 1.42117 7.97391 1.42117L8.00391 1.44117C11.5566 1.44117 14.3439 1.06917 14.5112 4.76517C14.5492 5.6085 14.5579 5.86184 14.5579 7.9965C14.5572 11.2912 14.6199 12.6358 13.6286 13.6318Z" fill="#222222" fill-opacity="0.62"/>
<path d="M12.2706 4.68917C12.8004 4.68917 13.2299 4.25966 13.2299 3.72984C13.2299 3.20001 12.8004 2.77051 12.2706 2.77051C11.7408 2.77051 11.3113 3.20001 11.3113 3.72984C11.3113 4.25966 11.7408 4.68917 12.2706 4.68917Z" fill="#222222" fill-opacity="0.62"/>
</g>
<defs>
<clipPath id="clip0_10_159">
<rect width="16" height="16" fill="white"/>
</clipPath>
</defs>
</svg>

<svg width="16" height="16" fill="none" xmlns="http://www.w3.org/2000/svg"><g clip-path="url(#a)" fill="#222" fill-opacity=".62"><path d="M8.003 3.892a4.105 4.105 0 1 0-.001 8.21 4.105 4.105 0 0 0 0-8.21Zm0 6.77a2.664 2.664 0 1 1 0-5.33 2.664 2.664 0 1 1 0 5.33Z"/><path d="M11.299.05C9.827-.017 6.18-.014 4.707.05 3.413.112 2.271.425 1.35 1.345-.19 2.885.008 4.957.008 7.997c0 3.112-.173 5.137 1.342 6.653 1.545 1.544 3.648 1.342 6.653 1.342 3.082 0 4.146.002 5.236-.42 1.482-.575 2.6-1.9 2.71-4.28.07-1.472.066-5.117 0-6.59C15.817 1.891 14.31.188 11.3.05Zm2.33 13.582c-1.01 1.008-2.408.918-5.646.918-3.333 0-4.67.05-5.645-.928-1.123-1.118-.92-2.913-.92-5.635 0-3.684-.378-6.337 3.319-6.526.849-.03 1.099-.04 3.237-.04l.03.02c3.553 0 6.34-.372 6.507 3.324.038.844.047 1.097.047 3.232 0 3.294.062 4.639-.93 5.635Z"/><path d="M12.27 4.69a.96.96 0 1 0 0-1.92.96.96 0 0 0 0 1.92Z"/></g><defs><clipPath id="a"><path fill="#fff" d="M0 0h16v16H0z"/></clipPath></defs></svg>
